X: 1
T: the Carlingwark Hornpipe
C: Jean O'Connor
R: hornpipe
Z: 2013 John Chambers <jc:trillian.mit.edu>
M: C|
L: 1/8
K: F
cB |\
"F"A2 F2 FG AF | "Gm"G2 D2 D4 | "C7"C2 ED CE BG | "F"AB cd "C7"c2 cB |
"F"A2 cA F2 AF | "Bb"DF DF "F"C2 FC | "Gm"DB GE "C7"Cd cB | "F"A2 F2 F2 :|
|: AB |\
"F"Ac fc Ac fc | "C7"B2 G2 G2 AB | "F"cA fA "Gm"BG gf | "C"e2 c2 "C7"c2 de |
"F"fe dc "Bb"BA GF | "G7"gf ed "C7"cB AG | "F"Ac fc "Bb"df "C7"gb | "F"a2 f2 f2 :|
